public/logos/BY.svg

<?xml version="1.0" encoding="UTF-8"?>
<svg xmlns="http://www.w3.org/2000/svg" xmlns:xlink="http://www.w3.org/1999/xlink" width="134.71pt" height="59pt" viewBox="0 0 134.71 59" version="1.1">
<defs>
<clipPath id="clip1">
  <path d="M 83 28 L 134.710938 28 L 134.710938 52 L 83 52 Z M 83 28 "/>
</clipPath>
</defs>
<g id="surface1">
<g clip-path="url(#clip1)" clip-rule="nonzero">
<path style=" stroke:none;fill-rule:nonzero;fill:rgb(83.920288%,11.817932%,14.691162%);fill-opacity:1;" d="M 94.820312 51.003906 C 94.941406 50.90625 95.035156 50.78125 95.097656 50.640625 C 95.160156 50.441406 95.191406 50.234375 95.179688 50.027344 L 95.179688 32.898438 L 100.1875 32.898438 C 100.492188 32.90625 100.792969 32.867188 101.085938 32.789062 C 101.320312 32.714844 101.515625 32.542969 101.621094 32.324219 C 101.800781 31.933594 101.917969 31.519531 101.972656 31.089844 C 102.042969 30.675781 102.085938 30.253906 102.09375 29.832031 C 102.101562 29.628906 102.078125 29.425781 102.027344 29.230469 C 101.984375 29.085938 101.890625 28.960938 101.761719 28.878906 C 101.652344 28.820312 101.535156 28.777344 101.414062 28.757812 C 101.195312 28.726562 100.976562 28.710938 100.753906 28.71875 L 85.167969 28.71875 C 84.863281 28.710938 84.558594 28.746094 84.269531 28.824219 C 84.023438 28.894531 83.820312 29.066406 83.707031 29.289062 C 83.53125 29.628906 83.414062 29.996094 83.355469 30.371094 C 83.273438 30.832031 83.230469 31.292969 83.230469 31.761719 C 83.234375 31.972656 83.265625 32.183594 83.328125 32.386719 C 83.371094 32.53125 83.472656 32.65625 83.601562 32.734375 C 83.917969 32.871094 84.261719 32.925781 84.605469 32.898438 L 90.179688 32.898438 L 90.179688 50.015625 C 90.136719 50.386719 90.277344 50.753906 90.554688 51 C 90.859375 51.230469 91.578125 51.347656 92.707031 51.347656 C 93.835938 51.347656 94.535156 51.234375 94.816406 51.011719 Z M 119.359375 51.117188 C 120.402344 50.777344 121.363281 50.21875 122.171875 49.476562 C 122.90625 48.792969 123.46875 47.949219 123.8125 47.011719 C 124.164062 46.007812 124.339844 44.953125 124.332031 43.890625 L 124.332031 29.957031 C 124.375 29.589844 124.246094 29.226562 123.980469 28.96875 C 123.652344 28.738281 122.945312 28.621094 121.867188 28.621094 C 120.785156 28.621094 120.070312 28.738281 119.71875 28.96875 C 119.589844 29.054688 119.484375 29.175781 119.425781 29.320312 C 119.351562 29.523438 119.3125 29.738281 119.3125 29.957031 L 119.3125 43.828125 C 119.308594 44.402344 119.214844 44.972656 119.027344 45.515625 C 118.800781 46.128906 118.355469 46.640625 117.769531 46.945312 C 116.984375 47.351562 116.101562 47.546875 115.214844 47.507812 C 114.574219 47.519531 113.941406 47.429688 113.335938 47.242188 C 112.859375 47.09375 112.425781 46.835938 112.0625 46.492188 C 111.730469 46.167969 111.476562 45.765625 111.332031 45.324219 C 111.171875 44.839844 111.09375 44.332031 111.101562 43.820312 L 111.101562 29.957031 C 111.144531 29.589844 111.015625 29.226562 110.753906 28.96875 C 110.421875 28.738281 109.71875 28.621094 108.636719 28.621094 C 107.558594 28.621094 106.839844 28.738281 106.488281 28.96875 C 106.355469 29.054688 106.257812 29.175781 106.195312 29.320312 C 106.136719 29.527344 106.113281 29.742188 106.128906 29.957031 L 106.128906 43.882812 C 106.117188 44.945312 106.292969 46.003906 106.644531 47.003906 C 106.980469 47.949219 107.535156 48.800781 108.265625 49.492188 C 109.074219 50.226562 110.035156 50.78125 111.078125 51.113281 C 113.777344 51.898438 116.644531 51.898438 119.347656 51.113281 Z M 134.332031 51.003906 C 134.457031 50.90625 134.554688 50.78125 134.621094 50.640625 C 134.6875 50.441406 134.71875 50.234375 134.710938 50.027344 L 134.710938 29.957031 C 134.71875 29.742188 134.6875 29.53125 134.621094 29.332031 C 134.558594 29.191406 134.457031 29.070312 134.332031 28.980469 C 134.027344 28.75 133.324219 28.632812 132.21875 28.632812 C 131.109375 28.632812 130.394531 28.75 130.070312 28.980469 C 129.945312 29.070312 129.847656 29.191406 129.78125 29.332031 C 129.71875 29.53125 129.695312 29.742188 129.710938 29.957031 L 129.710938 50.039062 C 129.671875 50.398438 129.800781 50.753906 130.058594 51.011719 C 130.359375 51.242188 131.078125 51.359375 132.207031 51.359375 C 133.335938 51.359375 134.042969 51.242188 134.332031 51.003906 "/>
</g>
<path style=" stroke:none;fill-rule:nonzero;fill:rgb(83.920288%,11.817932%,14.691162%);fill-opacity:1;" d="M 3.480469 16.429688 L 21.027344 16.429688 C 22.761719 16.429688 24.042969 16.992188 24.546875 19.417969 C 25.109375 22.136719 24.898438 24.027344 21.828125 24.238281 L 16.3125 24.632812 C 20.375 50.230469 44.058594 58.578125 56.957031 30.996094 C 59.09375 26.433594 59.769531 25.601562 62.125 26.179688 C 65.292969 26.96875 65.726562 28.609375 64.207031 33.195312 C 53.074219 67.195312 15.597656 70.601562 8.246094 25.214844 L 3.785156 25.53125 C 0.144531 25.792969 0 22.71875 0 21.03125 C -0.0117188 17.640625 1.242188 16.429688 3.480469 16.429688 "/>
<path style=" stroke:none;fill-rule:nonzero;fill:rgb(83.920288%,11.817932%,14.691162%);fill-opacity:1;" d="M 67.238281 0 C 70.832031 0 73.742188 2.910156 73.742188 6.503906 C 73.742188 10.09375 70.832031 13.007812 67.238281 13.007812 C 63.648438 13.007812 60.738281 10.09375 60.738281 6.503906 C 60.738281 2.910156 63.648438 0 67.238281 0 "/>
</g>
</svg>

<svg xmlns="http://www.w3.org/2000/svg" width="179.613" height="59pt" viewBox="0 0 134.71 59"><defs><clipPath id="a"><path d="M83 28h51.71v24H83Zm0 0"/></clipPath></defs><g clip-path="url(#a)"><path d="M94.82 51.004a1 1 0 0 0 .278-.363c.062-.2.093-.407.082-.614V32.898h5.007q.459.01.899-.109a.9.9 0 0 0 .535-.465q.27-.587.352-1.234c.07-.414.113-.836.12-1.258a2 2 0 0 0-.066-.602.63.63 0 0 0-.265-.351 1.1 1.1 0 0 0-.348-.121 3.7 3.7 0 0 0-.66-.04H85.168a3.2 3.2 0 0 0-.898.106.92.92 0 0 0-.563.465 3.6 3.6 0 0 0-.352 1.082q-.124.69-.125 1.39.006.32.098.626a.62.62 0 0 0 .274.347c.316.137.66.192 1.003.164h5.575v17.118a1.14 1.14 0 0 0 .375.984q.457.346 2.152.348c1.129 0 1.828-.114 2.11-.336Zm24.54.113a7.7 7.7 0 0 0 2.812-1.64 6.36 6.36 0 0 0 1.64-2.465 9.2 9.2 0 0 0 .52-3.121V29.957a1.18 1.18 0 0 0-.352-.988q-.494-.346-2.113-.348-1.622 0-2.148.348a.8.8 0 0 0-.293.351 1.9 1.9 0 0 0-.114.637v13.871a5.3 5.3 0 0 1-.285 1.688 2.64 2.64 0 0 1-1.257 1.43 5.1 5.1 0 0 1-2.555.562 6 6 0 0 1-1.88-.266 3.3 3.3 0 0 1-1.272-.75 2.9 2.9 0 0 1-.731-1.168 4.6 4.6 0 0 1-.23-1.504V29.957a1.19 1.19 0 0 0-.348-.988c-.332-.23-1.035-.348-2.117-.348q-1.619 0-2.149.348a.8.8 0 0 0-.293.351 1.9 1.9 0 0 0-.066.637v13.926a9.1 9.1 0 0 0 .516 3.12c.335.946.89 1.798 1.62 2.49a7.6 7.6 0 0 0 2.813 1.62c2.7.785 5.567.785 8.27 0Zm14.972-.113c.125-.098.223-.223.29-.363q.1-.302.089-.614v-20.07a1.8 1.8 0 0 0-.09-.625.9.9 0 0 0-.289-.352q-.457-.346-2.113-.347-1.663.001-2.149.347a.9.9 0 0 0-.289.352q-.094.301-.07.625v20.082c-.04.36.09.715.348.973.3.23 1.02.347 2.148.347q1.692.001 2.125-.355" style="stroke:none;fill-rule:nonzero;fill:#d61e25;fill-opacity:1"/></g><path d="M3.48 16.43h17.547c1.735 0 3.016.562 3.52 2.988.562 2.719.351 4.61-2.719 4.82l-5.515.395c4.062 25.597 27.746 33.945 40.644 6.363 2.137-4.562 2.813-5.394 5.168-4.816 3.168.789 3.602 2.43 2.082 7.015-11.133 34-48.61 37.407-55.96-7.98l-4.462.316C.145 25.793 0 22.72 0 21.031c-.012-3.39 1.242-4.601 3.48-4.601M67.238 0a6.504 6.504 0 0 1 0 13.008c-3.59 0-6.5-2.914-6.5-6.504A6.5 6.5 0 0 1 67.238 0" style="stroke:none;fill-rule:nonzero;fill:#d61e25;fill-opacity:1"/></svg>
